icons/circle/48/input-tablet.svg

<svg xmlns="http://www.w3.org/2000/svg" viewBox="0 0 48 48">
 <defs>
  <linearGradient id="linearGradient3764" y1="47" x2="0" y2="1" gradientUnits="userSpaceOnUse">
   <stop style="stop-color:#a2e7e8;stop-opacity:1"/>
   <stop offset="1" style="stop-color:#b2ecec;stop-opacity:1"/>
  </linearGradient>
 </defs>
 <g>
  <path d="m 36.31 5 c 5.859 4.062 9.688 10.831 9.688 18.5 c 0 12.426 -10.07 22.5 -22.5 22.5 c -7.669 0 -14.438 -3.828 -18.5 -9.688 c 1.037 1.822 2.306 3.499 3.781 4.969 c 4.085 3.712 9.514 5.969 15.469 5.969 c 12.703 0 23 -10.298 23 -23 c 0 -5.954 -2.256 -11.384 -5.969 -15.469 c -1.469 -1.475 -3.147 -2.744 -4.969 -3.781 z m 4.969 3.781 c 3.854 4.113 6.219 9.637 6.219 15.719 c 0 12.703 -10.297 23 -23 23 c -6.081 0 -11.606 -2.364 -15.719 -6.219 c 4.16 4.144 9.883 6.719 16.219 6.719 c 12.703 0 23 -10.298 23 -23 c 0 -6.335 -2.575 -12.06 -6.719 -16.219 z" style="opacity:0.05"/>
  <path d="m 41.28 8.781 c 3.712 4.085 5.969 9.514 5.969 15.469 c 0 12.703 -10.297 23 -23 23 c -5.954 0 -11.384 -2.256 -15.469 -5.969 c 4.113 3.854 9.637 6.219 15.719 6.219 c 12.703 0 23 -10.298 23 -23 c 0 -6.081 -2.364 -11.606 -6.219 -15.719 z" style="opacity:0.1"/>
  <path d="m 31.25 2.375 c 8.615 3.154 14.75 11.417 14.75 21.13 c 0 12.426 -10.07 22.5 -22.5 22.5 c -9.708 0 -17.971 -6.135 -21.12 -14.75 a 23 23 0 0 0 44.875 -7 a 23 23 0 0 0 -16 -21.875 z" style="opacity:0.2"/>
 </g>
 <g>
  <path d="m 24 1 c 12.703 0 23 10.297 23 23 c 0 12.703 -10.297 23 -23 23 -12.703 0 -23 -10.297 -23 -23 0 -12.703 10.297 -23 23 -23 z" style="fill:url(#linearGradient3764);fill-opacity:1"/>
 </g>
 <g>
  <g>
   <g transform="translate(1,1)">
    <g style="opacity:0.1">
     <!-- color: #b2ecec -->
     <g>
      <path d="m 14 12 c -1.105 0 -2 0.895 -2 2 l 0 18 c 0 1.105 0.895 2 2 2 l 14.371 0 l 3.68 3.68 c 0.391 0.387 0.953 0.465 1.414 0 l 0.707 -0.707 c 0.387 -0.383 0.41 -1.01 0 -1.414 l -1.559 -1.559 l 3.387 0 c 1.105 0 2 -0.895 2 -2 l 0 -18 c 0 -1.105 -0.895 -2 -2 -2 l -22 0 z" transform="translate(-1,-1)"/>
     </g>
    </g>
   </g>
  </g>
 </g>
 <g>
  <g>
   <!-- color: #b2ecec -->
   <g>
    <path d="m 13 11 22 0 c 1.105 0 2 0.895 2 2 l 0 18 c 0 1.105 -0.895 2 -2 2 l -22 0 c -1.105 0 -2 -0.895 -2 -2 l 0 -18 c 0 -1.105 0.895 -2 2 -2 m 0 0" style="fill:#314c5b;fill-opacity:1;stroke:none;fill-rule:nonzero"/>
    <path d="m 16 13 19 0 0 18 -19 0 m 0 -18" style="fill:#82949d;fill-opacity:1;stroke:none;fill-rule:nonzero"/>
    <path d="m 14 23 3 0 c 0.551 0 1 0.449 1 1 0 0.551 -0.449 1 -1 1 l -3 0 c -0.551 0 -1 -0.449 -1 -1 0 -0.551 0.449 -1 1 -1 m 0 0" style="fill:#82949d;fill-opacity:1;stroke:none;fill-rule:nonzero"/>
    <path d="m 31.05 36.68 c 0.391 0.387 0.953 0.465 1.414 0 l 0.707 -0.707 c 0.387 -0.383 0.41 -1.01 0 -1.414 l -9.898 -9.902 c -0.707 -0.707 -2.121 -0.707 -2.477 -0.352 -0.352 0.352 -0.352 1.766 0.355 2.473 m 9.898 9.902" style="fill:#475b64;fill-opacity:1;stroke:none;fill-rule:nonzero"/>
    <path d="m 20.09,23.598 c -0.352,0.352 0.355,2.473 1.063,3.18 l 2.121,-2.121 C 22.567,23.95 20.446,23.243 20.09,23.598 m 0,0" style="fill:#f4b359;fill-opacity:1;stroke:none;fill-rule:nonzero"/>
   </g>
  </g>
 </g>
 <g>
  <path d="m 40.03 7.531 c 3.712 4.084 5.969 9.514 5.969 15.469 0 12.703 -10.297 23 -23 23 c -5.954 0 -11.384 -2.256 -15.469 -5.969 4.178 4.291 10.01 6.969 16.469 6.969 c 12.703 0 23 -10.298 23 -23 0 -6.462 -2.677 -12.291 -6.969 -16.469 z" style="opacity:0.1"/>
 </g>
</svg>

<svg xmlns="http://www.w3.org/2000/svg" viewBox="0 0 48 48">
  <defs>
    <linearGradient id="a" y1="47" x2="0" y2="1" gradientUnits="userSpaceOnUse">
      <stop stop-color="#a2e7e8"/>
      <stop offset="1" stop-color="#b2ecec"/>
    </linearGradient>
  </defs>
  <path d="M36.31 5c5.859 4.062 9.688 10.831 9.688 18.5 0 12.426-10.07 22.5-22.5 22.5-7.669 0-14.438-3.828-18.5-9.688a23.24 23.24 0 0 0 3.781 4.969 22.923 22.923 0 0 0 15.469 5.969c12.703 0 23-10.298 23-23a22.92 22.92 0 0 0-5.969-15.469A23.216 23.216 0 0 0 36.31 5zm4.969 3.781A22.911 22.911 0 0 1 47.498 24.5c0 12.703-10.297 23-23 23a22.909 22.909 0 0 1-15.719-6.219C12.939 45.425 18.662 48 24.998 48c12.703 0 23-10.298 23-23 0-6.335-2.575-12.06-6.719-16.219z" opacity=".05"/>
  <path d="M41.28 8.781a22.923 22.923 0 0 1 5.969 15.469c0 12.703-10.297 23-23 23A22.92 22.92 0 0 1 8.78 41.281 22.911 22.911 0 0 0 24.499 47.5c12.703 0 23-10.298 23-23A22.909 22.909 0 0 0 41.28 8.781z" opacity=".1"/>
  <path d="M31.25 2.375C39.865 5.529 46 13.792 46 23.505c0 12.426-10.07 22.5-22.5 22.5-9.708 0-17.971-6.135-21.12-14.75a23 23 0 0 0 44.875-7 23 23 0 0 0-16-21.875z" opacity=".2"/>
  <path d="M24 1c12.703 0 23 10.297 23 23S36.703 47 24 47 1 36.703 1 24 11.297 1 24 1z" fill="url(#a)"/>
  <path d="M14 12a2 2 0 0 0-2 2v18a2 2 0 0 0 2 2h14.371l3.68 3.68c.391.387.953.465 1.414 0l.707-.707a.986.986 0 0 0 0-1.414L32.613 34H36a2 2 0 0 0 2-2V14a2 2 0 0 0-2-2H14z" opacity=".1"/>
  <g>
    <path d="M13 11h22a2 2 0 0 1 2 2v18a2 2 0 0 1-2 2H13a2 2 0 0 1-2-2V13a2 2 0 0 1 2-2m0 0" fill="#314c5b"/>
    <path d="M16 13h19v18H16m0-18" fill="#82949d"/>
    <path d="M14 23h3c.551 0 1 .449 1 1 0 .551-.449 1-1 1h-3c-.551 0-1-.449-1-1 0-.551.449-1 1-1m0 0" fill="#82949d"/>
    <path d="M31.05 36.68c.391.387.953.465 1.414 0l.707-.707a.986.986 0 0 0 0-1.414l-9.898-9.902c-.707-.707-2.121-.707-2.477-.352-.352.352-.352 1.766.355 2.473m9.898 9.902" fill="#475b64"/>
    <path d="M20.09 23.598c-.352.352.355 2.473 1.063 3.18l2.121-2.121c-.707-.707-2.828-1.414-3.184-1.059m0 0" fill="#f4b359"/>
  </g>
  <g>
    <path d="M40.03 7.531A22.922 22.922 0 0 1 45.999 23c0 12.703-10.297 23-23 23A22.92 22.92 0 0 1 7.53 40.031C11.708 44.322 17.54 47 23.999 47c12.703 0 23-10.298 23-23 0-6.462-2.677-12.291-6.969-16.469z" opacity=".1"/>
  </g>
</svg>
